public/assets/img/material-icons/smart_button.svg

<svg height="24" viewBox="0 0 24 24" width="24" xmlns="http://www.w3.org/2000/svg"><path d="m22 9v6c0 1.1-.9 2-2 2h-1v-2h1v-6h-16v6h6v2h-6c-1.1 0-2-.9-2-2v-6c0-1.1.9-2 2-2h16c1.1 0 2 .9 2 2zm-7.5 10 1.09-2.41 2.41-1.09-2.41-1.09-1.09-2.41-1.09 2.41-2.41 1.09 2.41 1.09zm2.5-5 .62-1.38 1.38-.62-1.38-.62-.62-1.38-.62 1.38-1.38.62 1.38.62zm-2.5 5 1.09-2.41 2.41-1.09-2.41-1.09-1.09-2.41-1.09 2.41-2.41 1.09 2.41 1.09zm2.5-5 .62-1.38 1.38-.62-1.38-.62-.62-1.38-.62 1.38-1.38.62 1.38.62z"/></svg>

<svg xmlns="http://www.w3.org/2000/svg" width="24" height="24" viewBox="0 0 24 24"><path d="M22 9v6c0 1.1-.9 2-2 2h-1v-2h1V9H4v6h6v2H4c-1.1 0-2-.9-2-2V9c0-1.1.9-2 2-2h16c1.1 0 2 .9 2 2zm-7.5 10 1.09-2.41L18 15.5l-2.41-1.09L14.5 12l-1.09 2.41L11 15.5l2.41 1.09L14.5 19zm2.5-5 .62-1.38L19 12l-1.38-.62L17 10l-.62 1.38L15 12l1.38.62L17 14zm-2.5 5 1.09-2.41L18 15.5l-2.41-1.09L14.5 12l-1.09 2.41L11 15.5l2.41 1.09L14.5 19zm2.5-5 .62-1.38L19 12l-1.38-.62L17 10l-.62 1.38L15 12l1.38.62L17 14z"/></svg>
